!!!OTL: Wechselgesang.
!!!OTL-incipit:ICH TRINKE TAEGLICH MEIN NEKTARVOLLES GLAESCHEN
!!!COM: Studentenweise
!!!ARE: Europa, Mitteleuropa, Deutschland
!!!SCT: F0491
!!!TXL: @@DE
!!!YEM: Copyright 1995, estate of Helmut Schaffrath.
**kern	**text
*ICvox	*
*clefG2	*
*M2/4	*
*k[b-e-a-]	*
*E-:	*
!LO:TX:a:t=Einer. Die Wiederholung Alle.	!
!LO:TX:a:t=Munter.	!
!LO:TX:a:t=P:only the highest voice encoded:problem	!
{8e-	1._Jch
=1	=1
4b-/	trin-
8b-/	-ke
8a-/	tag-
=2	=2
(8a-L	-täg-
8gJ)	.
8g}	-lich
{8b-/	mein
=3	=3
8cc/	nek-
8b-/	-tar-
8a-/	-vol-
8g/	-les
=4	=4
(8gL	Gläschen,
8fJ)	.
8f}	.
{8b-/	und
=5	=5
4b-/	ſchwärme
8b-/	.
8a-	ver-
=6	=6
8a-	-trau-
8g	.
8g}	-lich
{8b-/	mit
=7	=7
(8cc/L	1._Freunden
8b-J)	.
8a-	.
8g	ʒu-
=8	=8
(>4g	-gleich.
8f)	.
8r}	.
{8e-	1._Jch
=1	=1
4b-/	trin-
8b-/	-ke
8a-/	tag-
=2	=2
(8a-L	-täg-
8gJ)	.
8g}	-lich
{8b-/	mein
=3	=3
8cc/	nek-
8b-/	-tar-
8a-/	-vol-
8g/	-les
=4	=4
(8gL	Gläschen,
8fJ)	.
8f}	.
{8b-/	und
=5	=5
4b-/	ſchwärme
8b-/	.
8a-	ver-
=6	=6
8a-	-trau-
8g	.
8g}	-lich
{8b-/	mit
=7	=7
(8cc/L	1._Freunden
8b-J)	.
8a-	.
8g	ʒu-
=8	=8
(>4g	-gleich.
8f)	.
8r}	.
=9	=9
{8.f	Schwindet
16g	.
8f	all
8e-	ihr
=10	=10
(8dL	Sorgen,
8fJ)	.
4b-/}	.
=11	=11
{8.f	.
16g	Schwindet
8f	.
8e-	heut'
=12	=12
(8dL	und
8fJ)	mor-
8b-/}	.
{8B-	-gen!
=13	=13
(8e-L	Bald
8gJ)	trinkt'
8b-/	.
8B-	ich
=14	=14
(8e-L	mein
8gJ)	Gläschen,
8b-/}	.
{8B-	.
=15	=15
(8e-L	bald
8gJ)	küß'
8b-/	.
8B-	ich
=16	=16
(8e-L	mein
8gJ)	Mädchen.
8b-/}	.
!LO:TX:a:t=Alle.	!
{8B-	Dein
=17	=17
8e-L	Gläschen,
8gJ	.
8b-/	.
8B-	dein
=18	=18
8e-L	Mädchen.
8gJ	.
4b-/}	.
=19	=19
!LO:TX:a:t=Einer.	!
{8ee-	Freunde,
16ddL	.
16ccJ	.
8b-/	thut
8a-	mir's
=20	=20
4b-	al-
4B-	-le
=21	=21
2e-}	gleich.
=22	=22
!LO:TX:a:t=Alle.	!
{8ee-	Ja,
16dd/L	wir
16ccJ	.
8b-/	thun
8cc/	dir's
=23	=23
4b-/	al-
4b-/	-le
=24	=24
2e-}	gleich.
==	==
!!!AGN: Studenten -, Trink - Lied
!!!ONB: ESAC (Essen Associative Code) Database: FINK
!!!AMT: simple duple
!!!AIN: vox
!!!EED: Helmut Schaffrath
!!!EEV: 1.0
!!!RDF**kern: > = above
!!!GTL: Studentenlieder
!!Text: Studentenlied
!!!source: Musikalischer Hausschatz der Deutschen. Eine Sammlung von über 1000 Liedern und Gesängen mit Singstimmen und Klavierbegleitung. Leipzig, Litterarisches Verlags-Haus.
!!!page: 311
!!!URL-scan: https://www.digitale-sammlungen.de/en/view/bsb11144622?page=288
!!!ENC: Anna Maria Matuszewska
!!!EEV: 2024/08/01
*-	*-